images_sukapura_svg/framework/res/templates_32.svg

<svg height="32" viewBox="0 0 32 32" width="32" xmlns="http://www.w3.org/2000/svg" xmlns:xlink="http://www.w3.org/1999/xlink"><linearGradient id="a"><stop offset="0" stop-color="#a7a7a7"/><stop offset="1" stop-color="#c5c5c5"/></linearGradient><linearGradient id="b"><stop offset="0" stop-color="#e1e1e1"/><stop offset=".35714287" stop-color="#f8f8f8"/><stop offset="1" stop-color="#fefefe"/></linearGradient><linearGradient id="c" gradientUnits="userSpaceOnUse" x1="14" x2="14" xlink:href="#b" y1="26" y2="4"/><linearGradient id="d" gradientUnits="userSpaceOnUse" x1="6" x2="6" xlink:href="#a" y1="25" y2="4"/><linearGradient id="e" gradientUnits="userSpaceOnUse" x1="23" x2="23" xlink:href="#a" y1="25" y2="4"/><linearGradient id="f" gradientUnits="userSpaceOnUse" x1="17" x2="20" y1="12" y2="9"><stop offset="0" stop-color="#fff"/><stop offset=".83333331" stop-color="#f4f4f4"/><stop offset="1" stop-color="#eaeaea"/></linearGradient><linearGradient id="g" gradientUnits="userSpaceOnUse" x1="23" x2="23" xlink:href="#a" y1="29" y2="17"/><linearGradient id="h" gradientUnits="userSpaceOnUse" x1="23" x2="23" xlink:href="#b" y1="29" y2="17"/><path d="m7.5 4.5c-.554 0-1 .446-1 1v19c0 .554.446 1 1 1h7.021484l8.978516-9.404297v-3.095703c-.02775-.04143-.02675-.09297-.002-.154297l.002-.002v-.843703l-6.5-7-1-.5h-.929688c-.019674.016239-.04233.0205619-.070312 0z" fill="url(#c)" stroke="url(#d)"/><path d="m15 4.5h1l1 .5 6.5 7v1c-.444082-.662953-.718679-.56641-1-.5h-6v-6.5c-.330271-.7048077-.892518-1.0536011-1.5-1.5z" fill="url(#f)" stroke="url(#e)"/><path d="m25.5 16.5-10.5 11h10.5zm-1.958984 4.509766-.041016 4.490234h-4z" fill="url(#h)" stroke="url(#g)" stroke-linecap="round" stroke-linejoin="round"/></svg>

<?xml version="1.0" encoding="UTF-8" standalone="no"?>
<svg
   xmlns:dc="http://purl.org/dc/elements/1.1/"
   xmlns:cc="http://creativecommons.org/ns#"
   xmlns:rdf="http://www.w3.org/1999/02/22-rdf-syntax-ns#"
   xmlns:svg="http://www.w3.org/2000/svg"
   xmlns="http://www.w3.org/2000/svg"
   xmlns:xlink="http://www.w3.org/1999/xlink"
   xmlns:sodipodi="http://sodipodi.sourceforge.net/DTD/sodipodi-0.dtd"
   xmlns:inkscape="http://www.inkscape.org/namespaces/inkscape"
   height="32"
   viewBox="0 0 32 32"
   width="32"
   version="1.1"
   id="svg12"
   sodipodi:docname="templates_32.svg"
   inkscape:export-filename="/home/rizmut/Dokumen/Rizmut/Github/libreoffice-style-colibrex/images_colibrex/framework/res/templates_32.png"
   inkscape:export-xdpi="96"
   inkscape:export-ydpi="96"
   inkscape:version="0.92.3 (unknown)">
  <metadata
     id="metadata18">
    <rdf:RDF>
      <cc:Work
         rdf:about="">
        <dc:format>image/svg+xml</dc:format>
        <dc:type
           rdf:resource="http://purl.org/dc/dcmitype/StillImage" />
        <dc:title></dc:title>
      </cc:Work>
    </rdf:RDF>
  </metadata>
  <defs
     id="defs16">
    <linearGradient
       inkscape:collect="always"
       id="linearGradient909">
      <stop
         style="stop-color:#ffffff;stop-opacity:1;"
         offset="0"
         id="stop905" />
      <stop
         id="stop913"
         offset="0.83333331"
         style="stop-color:#f4f4f4;stop-opacity:1;" />
      <stop
         style="stop-color:#eaeaea;stop-opacity:1"
         offset="1"
         id="stop907" />
    </linearGradient>
    <linearGradient
       inkscape:collect="always"
       id="linearGradient874">
      <stop
         style="stop-color:#a7a7a7;stop-opacity:1"
         offset="0"
         id="stop870" />
      <stop
         style="stop-color:#c5c5c5;stop-opacity:1"
         offset="1"
         id="stop872" />
    </linearGradient>
    <linearGradient
       id="linearGradient866"
       inkscape:collect="always">
      <stop
         id="stop862"
         offset="0"
         style="stop-color:#e1e1e1;stop-opacity:1;" />
      <stop
         style="stop-color:#f8f8f8;stop-opacity:1"
         offset="0.35714287"
         id="stop868" />
      <stop
         id="stop864"
         offset="1"
         style="stop-color:#fefefe;stop-opacity:1" />
    </linearGradient>
    <clipPath
       clipPathUnits="userSpaceOnUse"
       id="clipPath818">
      <circle
         style="opacity:1;fill:#0a84ff;fill-opacity:1;stroke:none;stroke-width:9.40416336;stroke-miterlimit:4;stroke-dasharray:none;stroke-opacity:1"
         id="circle820"
         cx="340.65686"
         cy="399.84625"
         r="47.020817" />
    </clipPath>
    <clipPath
       clipPathUnits="userSpaceOnUse"
       id="clipPath853">
      <rect
         style="opacity:1;fill:#0a84ff;fill-opacity:1;stroke:none;stroke-width:7;stroke-miterlimit:4;stroke-dasharray:none;stroke-opacity:1"
         id="rect855"
         width="104"
         height="88"
         x="488"
         y="-48" />
    </clipPath>
    <linearGradient
       inkscape:collect="always"
       xlink:href="#linearGradient866"
       id="linearGradient871"
       x1="48"
       y1="26"
       x2="48"
       y2="4"
       gradientUnits="userSpaceOnUse"
       gradientTransform="translate(-34)" />
    <linearGradient
       inkscape:collect="always"
       xlink:href="#linearGradient874"
       id="linearGradient879"
       x1="40"
       y1="25"
       x2="40"
       y2="4"
       gradientUnits="userSpaceOnUse"
       gradientTransform="translate(-34)" />
    <linearGradient
       inkscape:collect="always"
       xlink:href="#linearGradient874"
       id="linearGradient887"
       x1="57"
       y1="25"
       x2="57"
       y2="4"
       gradientUnits="userSpaceOnUse"
       gradientTransform="translate(-34)" />
    <linearGradient
       inkscape:collect="always"
       xlink:href="#linearGradient909"
       id="linearGradient911"
       x1="51"
       y1="12"
       x2="54"
       y2="9"
       gradientUnits="userSpaceOnUse"
       gradientTransform="translate(-34)" />
    <linearGradient
       inkscape:collect="always"
       xlink:href="#linearGradient874"
       id="linearGradient930"
       x1="57"
       y1="29"
       x2="57"
       y2="17"
       gradientUnits="userSpaceOnUse"
       gradientTransform="translate(-34)" />
    <linearGradient
       inkscape:collect="always"
       xlink:href="#linearGradient866"
       id="linearGradient938"
       x1="57"
       y1="29"
       x2="57"
       y2="17"
       gradientUnits="userSpaceOnUse"
       gradientTransform="translate(-34)" />
  </defs>
  <sodipodi:namedview
     pagecolor="#ffffff"
     bordercolor="#666666"
     borderopacity="1"
     objecttolerance="10"
     gridtolerance="10"
     guidetolerance="10"
     inkscape:pageopacity="0"
     inkscape:pageshadow="2"
     inkscape:window-width="1366"
     inkscape:window-height="706"
     id="namedview14"
     showgrid="true"
     inkscape:snap-global="true"
     inkscape:zoom="2.8284272"
     inkscape:cx="83.869328"
     inkscape:cy="-37.304878"
     inkscape:window-x="0"
     inkscape:window-y="0"
     inkscape:window-maximized="1"
     inkscape:current-layer="svg12"
     inkscape:snap-smooth-nodes="true">
    <inkscape:grid
       type="xygrid"
       id="grid828"
       spacingx="0.5"
       spacingy="0.5"
       empspacing="2" />
  </sodipodi:namedview>
  <path
     style="opacity:1;fill:url(#linearGradient871);fill-opacity:1;stroke:url(#linearGradient879);stroke-width:1;stroke-miterlimit:4;stroke-dasharray:none;stroke-opacity:1"
     d="m 7.5,4.5 c -0.554,0 -1,0.446 -1,1 v 19 c 0,0.554 0.446,1 1,1 h 7.021484 L 23.5,16.095703 V 13 c -0.02775,-0.04143 -0.02675,-0.09297 -0.002,-0.154297 l 0.002,-0.002 V 12 L 17,5 16,4.5 H 15.070312 C 15.050638,4.516239 15.027982,4.5205619 15,4.5 Z"
     id="rect857"
     inkscape:connector-curvature="0" />
  <path
     style="fill:url(#linearGradient911);fill-opacity:1;stroke:url(#linearGradient887);stroke-width:1px;stroke-linecap:butt;stroke-linejoin:miter;stroke-opacity:1"
     d="m 15,4.5 h 1 l 1,0.5 6.5,7 v 1 c -0.444082,-0.662953 -0.718679,-0.56641 -1,-0.5 h -6 V 6 C 16.169729,5.2951923 15.607482,4.9463989 15,4.5 Z"
     id="path859"
     inkscape:connector-curvature="0"
     sodipodi:nodetypes="ccccccccc" />
  <path
     style="fill:url(#linearGradient938);fill-opacity:1;stroke:url(#linearGradient930);stroke-width:1px;stroke-linecap:round;stroke-linejoin:round;stroke-opacity:1"
     d="M 25.5,16.5 15,27.5 H 25.5 Z M 23.541016,21.009766 23.5,25.5 h -4 z"
     id="path915"
     inkscape:connector-curvature="0" />
</svg>
